; extraction from LAYER_START=0 to LAYER_STOP=19.75
; generated by PrusaSlicer 2.0.0 on 2020-04-26 at 15:32:20

; 

; external perimeters extrusion width = 0.80mm
; perimeters extrusion width = 0.80mm
; infill extrusion width = 0.45mm
; solid infill extrusion width = 0.45mm
; top infill extrusion width = 0.40mm
; first layer extrusion width = 0.80mm

M107
M140 S60; Preheat bed
M104 S140 ; Preheat nozzle
G28 ; home all axes
M190 S60
M104 S205
G1 Z5 F5000 ; lift nozzle
G1 X100 Y100 F3000; Prepare to activate UBL
M109 S205
G29 L1 F3.0 A
; Filament gcode
M900 K0.06
G21 ; set units to millimeters
G90 ; use absolute coordinates
M82 ; use absolute distances for extrusion
G92 E0
G1 Z0.550 F4800.000
G1 E-0.70000 F3000.00000
G92 E0
G1 X28.990 Y6.755 F4800.000
G1 E0.90000 F1800.00000
G1 F864
G1 X29.027 Y6.607 E0.91578
G1 X29.119 Y6.484 E0.93158
G1 X29.250 Y6.406 E0.94737
G1 X29.441 Y6.378 E0.96730
G1 X32.098 Y6.517 E1.24191
G1 X31.800 Y12.209 E1.83017
G1 X32.699 Y12.257 E1.92306
G1 X32.997 Y6.564 E2.51138
G1 X33.796 Y6.606 E2.59395
G1 X33.498 Y12.299 E3.18225
G1 X34.397 Y12.345 E3.27513
G1 X34.695 Y6.653 E3.86341
G1 X37.352 Y6.793 E4.13801
G1 X37.539 Y6.840 E4.15794
G1 X37.662 Y6.932 E4.17374
G1 X37.740 Y7.063 E4.18953
G1 X37.762 Y7.215 E4.20533
G1 X37.724 Y7.363 E4.22111
G1 X37.633 Y7.486 E4.23691
G1 X37.501 Y7.564 E4.25270
G1 X37.310 Y7.591 E4.27264
G1 X35.452 Y7.494 E4.46467
G1 X35.195 Y12.387 E4.97040
G1 X60.986 Y13.739 E7.63583
G1 X60.986 Y12.866 E7.72597
G1 X61.302 Y12.550 E7.77207
G1 X62.872 Y12.115 E7.94022
G1 X67.211 Y11.141 E8.39917
G1 X71.592 Y10.381 E8.85813
G1 X75.401 Y9.911 E9.25419
G1 X75.194 Y8.870 E9.36374
G1 X75.322 Y8.222 E9.43188
G1 X75.689 Y7.673 E9.50002
G1 X76.239 Y7.306 E9.56822
G1 X76.916 Y7.170 E9.63950
G1 X82.476 Y7.170 E10.21335
G1 X82.476 Y7.970 E10.29592
G1 X76.846 Y7.970 E10.87692
G1 X76.538 Y8.031 E10.90933
G1 X76.244 Y8.228 E10.94589
G1 X76.047 Y8.523 E10.98246
G1 X75.978 Y8.870 E11.01901
G1 X76.047 Y9.217 E11.05556
G1 X76.244 Y9.512 E11.09213
G1 X76.538 Y9.709 E11.12869
G1 X76.862 Y9.773 E11.16279
G1 X80.440 Y9.509 E11.53305
G1 X84.886 Y9.400 E11.99201
G1 X89.331 Y9.509 E12.45097
G1 X93.766 Y9.836 E12.90992
G1 X98.180 Y10.381 E13.36888
G1 X102.561 Y11.141 E13.82783
G1 X106.552 Y12.037 E14.25005
G1 X107.061 Y7.931 E14.67707
G1 X107.127 Y7.680 E14.70389
G1 X107.239 Y7.527 E14.72342
G1 X107.503 Y7.407 E14.75344
G1 X107.731 Y7.588 E14.78346
G1 X107.802 Y7.763 E14.80299
G1 X107.805 Y8.023 E14.82981
G1 X107.285 Y12.222 E15.26643
G1 X111.185 Y13.301 E15.68416
G1 X115.408 Y14.696 E16.14312
G1 X119.557 Y16.297 E16.60207
G1 X123.622 Y18.099 E17.06102
G1 X127.594 Y20.098 E17.51998
G1 X131.463 Y22.290 E17.97893
G1 X135.220 Y24.669 E18.43789
G1 X138.856 Y27.229 E18.89684
G1 X142.362 Y29.965 E19.35581
G1 X145.729 Y32.870 E19.81476
G1 X148.950 Y35.936 E20.27371
G1 X152.016 Y39.157 E20.73267
G1 X154.920 Y42.524 E21.19162
G1 X157.656 Y46.030 E21.65058
G1 X160.217 Y49.665 E22.10953
G1 X162.596 Y53.422 E22.56850
G1 X164.788 Y57.292 E23.02745
G1 X166.713 Y61.116 E23.46934
G1 X170.494 Y59.338 E23.90052
G1 X170.742 Y59.261 E23.92735
G1 X170.930 Y59.273 E23.94686
G1 X171.174 Y59.433 E23.97690
G1 X171.141 Y59.722 E24.00693
G1 X171.031 Y59.875 E24.02643
G1 X170.813 Y60.017 E24.05327
G1 X167.024 Y61.798 E24.48535
G1 X168.589 Y65.329 E24.88399
G1 X170.190 Y69.478 E25.34295
G1 X171.585 Y73.700 E25.80192
G1 X172.771 Y77.986 E26.26086
G1 X173.744 Y82.325 E26.71981
G1 X174.505 Y86.706 E27.17877
G1 X175.050 Y91.120 E27.63773
G1 X175.376 Y95.554 E28.09668
G1 X175.486 Y100.000 E28.55564
G1 X175.376 Y104.446 E29.01460
G1 X175.050 Y108.880 E29.47355
G1 X174.505 Y113.294 E29.93251
G1 X173.744 Y117.675 E30.39147
G1 X172.771 Y122.014 E30.85041
G1 X171.585 Y126.300 E31.30936
G1 X170.190 Y130.522 E31.76833
G1 X168.589 Y134.671 E32.22728
G1 X167.024 Y138.202 E32.62593
G1 X170.813 Y139.983 E33.05801
G1 X171.031 Y140.125 E33.08485
G1 X171.141 Y140.278 E33.10435
G1 X171.174 Y140.567 E33.13438
G1 X170.930 Y140.727 E33.16442
G1 X170.742 Y140.739 E33.18393
G1 X170.494 Y140.661 E33.21076
G1 X166.713 Y138.884 E33.64194
G1 X164.788 Y142.708 E34.08383
G1 X162.596 Y146.578 E34.54279
G1 X160.217 Y150.335 E35.00175
G1 X157.656 Y153.970 E35.46070
G1 X154.920 Y157.476 E35.91966
G1 X152.016 Y160.843 E36.37861
G1 X148.950 Y164.064 E36.83757
G1 X145.729 Y167.130 E37.29652
G1 X142.362 Y170.035 E37.75547
G1 X138.856 Y172.771 E38.21444
G1 X135.220 Y175.331 E38.67339
G1 X131.463 Y177.710 E39.13235
G1 X127.594 Y179.902 E39.59130
G1 X123.622 Y181.901 E40.05025
G1 X119.557 Y183.703 E40.50921
G1 X115.408 Y185.304 E40.96816
G1 X111.185 Y186.699 E41.42712
G1 X107.285 Y187.778 E41.84485
G1 X107.805 Y191.977 E42.28147
G1 X107.802 Y192.236 E42.30829
G1 X107.731 Y192.412 E42.32782
G1 X107.504 Y192.593 E42.35784
G1 X107.239 Y192.473 E42.38786
G1 X107.127 Y192.320 E42.40739
G1 X107.061 Y192.069 E42.43421
G1 X106.552 Y187.963 E42.86123
G1 X102.561 Y188.859 E43.28345
G1 X98.180 Y189.619 E43.74240
G1 X93.766 Y190.164 E44.20136
G1 X89.331 Y190.491 E44.66031
G1 X84.886 Y190.600 E45.11927
G1 X80.440 Y190.491 E45.57823
G1 X76.862 Y190.227 E45.94849
G1 X76.538 Y190.291 E45.98259
G1 X76.244 Y190.488 E46.01915
G1 X76.047 Y190.783 E46.05572
G1 X75.978 Y191.130 E46.09227
G1 X76.047 Y191.477 E46.12882
G1 X76.244 Y191.772 E46.16539
G1 X76.538 Y191.969 E46.20195
G1 X76.846 Y192.030 E46.23436
G1 X82.476 Y192.030 E46.81536
G1 X82.476 Y192.830 E46.89793
G1 X76.916 Y192.830 E47.47178
G1 X76.239 Y192.694 E47.54306
G1 X75.689 Y192.326 E47.61126
G1 X75.322 Y191.778 E47.67940
G1 X75.194 Y191.130 E47.74754
G1 X75.401 Y190.089 E47.85708
G1 X71.592 Y189.619 E48.25315
G1 X67.211 Y188.859 E48.71210
G1 X62.872 Y187.885 E49.17106
G1 X61.302 Y187.450 E49.33920
G1 X60.986 Y187.134 E49.38531
G1 X60.986 Y186.261 E49.47545
G1 X35.195 Y187.613 E52.14088
G1 X35.452 Y192.506 E52.64661
G1 X37.310 Y192.409 E52.83864
G1 X37.501 Y192.436 E52.85858
G1 X37.633 Y192.514 E52.87437
G1 X37.724 Y192.637 E52.89017
G1 X37.762 Y192.785 E52.90595
G1 X37.740 Y192.937 E52.92175
G1 X37.662 Y193.068 E52.93754
G1 X37.539 Y193.160 E52.95333
G1 X37.352 Y193.207 E52.97326
G1 X34.695 Y193.347 E53.24787
G1 X34.397 Y187.655 E53.83616
G1 X33.498 Y187.702 E53.92904
G1 X33.796 Y193.394 E54.51733
G1 X32.997 Y193.436 E54.59990
G1 X32.699 Y187.743 E55.18821
G1 X31.800 Y187.791 E55.28110
G1 X32.098 Y193.483 E55.86938
G1 X29.441 Y193.622 E56.14398
G1 X29.250 Y193.594 E56.16391
G1 X29.119 Y193.516 E56.17970
G1 X29.027 Y193.393 E56.19550
G1 X28.990 Y193.245 E56.21128
G1 X29.012 Y193.094 E56.22707
G1 X29.090 Y192.962 E56.24287
G1 X29.212 Y192.871 E56.25866
G1 X29.400 Y192.823 E56.27860
G1 X31.258 Y192.726 E56.47063
G1 X31.001 Y187.832 E56.97636
G1 X30.156 Y187.877 E57.06372
G1 X27.706 Y188.221 E57.31912
G1 X27.594 Y187.429 E57.40168
G1 X30.094 Y187.078 E57.66224
G1 X60.904 Y185.464 E60.84648
G1 X62.219 Y185.169 E60.98559
G1 X66.373 Y184.019 E61.43036
G1 X70.465 Y182.668 E61.87513
G1 X74.485 Y181.117 E62.31990
G1 X78.425 Y179.370 E62.76468
G1 X82.274 Y177.433 E63.20945
G1 X86.024 Y175.309 E63.65422
G1 X89.665 Y173.003 E64.09900
G1 X93.188 Y170.522 E64.54377
G1 X96.586 Y167.870 E64.98854
G1 X99.849 Y165.056 E65.43332
G1 X102.970 Y162.084 E65.87809
G1 X105.941 Y158.963 E66.32285
G1 X108.756 Y155.700 E66.76763
G1 X111.407 Y152.302 E67.21240
G1 X113.889 Y148.779 E67.65718
G1 X116.194 Y145.138 E68.10195
G1 X118.319 Y141.389 E68.54672
G1 X120.256 Y137.539 E68.99150
G1 X122.003 Y133.600 E69.43627
G1 X123.553 Y129.579 E69.88104
G1 X124.905 Y125.487 E70.32581
G1 X126.055 Y121.334 E70.77058
G1 X126.999 Y117.129 E71.21536
G1 X127.736 Y112.883 E71.66014
G1 X128.263 Y108.606 E72.10490
G1 X128.580 Y104.308 E72.54968
G1 X128.686 Y100.000 E72.99445
G1 X128.580 Y95.692 E73.43922
G1 X128.263 Y91.394 E73.88399
G1 X127.736 Y87.117 E74.32876
G1 X126.999 Y82.871 E74.77354
G1 X126.055 Y78.666 E75.21831
G1 X124.905 Y74.513 E75.66308
G1 X123.553 Y70.421 E76.10786
G1 X122.003 Y66.400 E76.55263
G1 X120.256 Y62.461 E76.99740
G1 X118.319 Y58.611 E77.44218
G1 X116.194 Y54.862 E77.88695
G1 X113.889 Y51.221 E78.33172
G1 X111.407 Y47.698 E78.77649
G1 X108.756 Y44.300 E79.22127
G1 X105.941 Y41.037 E79.66604
G1 X102.970 Y37.916 E80.11081
G1 X99.849 Y34.944 E80.55558
G1 X96.586 Y32.130 E81.00035
G1 X93.188 Y29.478 E81.44513
G1 X89.665 Y26.997 E81.88990
G1 X86.024 Y24.691 E82.33467
G1 X82.274 Y22.567 E82.77944
G1 X78.425 Y20.630 E83.22422
G1 X74.485 Y18.883 E83.66899
G1 X70.465 Y17.332 E84.11377
G1 X66.373 Y15.981 E84.55854
G1 X62.219 Y14.831 E85.00331
G1 X60.904 Y14.536 E85.14241
G1 X30.094 Y12.922 E88.32665
G1 X27.594 Y12.571 E88.58721
G1 X27.706 Y11.779 E88.66978
G1 X30.156 Y12.123 E88.92518
G1 X31.001 Y12.168 E89.01253
G1 X31.258 Y7.274 E89.51826
G1 X29.400 Y7.177 E89.71030
G1 X29.212 Y7.129 E89.73023
G1 X29.090 Y7.038 E89.74602
G1 X29.012 Y6.906 E89.76182
G1 X28.998 Y6.814 E89.77142
G1 E89.07142 F3000.00000
G92 E0
G1 X61.806 Y13.100 F4800.000
G1 E0.90000 F1800.00000
G1 F864
G1 X62.311 Y13.100 E0.95211
G1 X63.066 Y12.891 E1.03295
G1 X67.367 Y11.925 E1.48786
G1 X71.709 Y11.172 E1.94276
G1 X76.084 Y10.632 E2.39767
G1 X80.479 Y10.308 E2.85257
G1 X84.853 Y10.201 E3.30407
G1 X89.292 Y10.308 E3.76237
G1 X93.688 Y10.632 E4.21728
G1 X98.062 Y11.172 E4.67218
G1 X102.405 Y11.925 E5.12709
G1 X106.705 Y12.891 E5.58199
G1 X110.953 Y14.067 E6.03690
G1 X115.139 Y15.449 E6.49181
G1 X119.251 Y17.036 E6.94671
G1 X123.280 Y18.822 E7.40161
G1 X127.217 Y20.803 E7.85651
G1 X131.052 Y22.976 E8.31142
G1 X134.776 Y25.334 E8.76632
G1 X138.380 Y27.872 E9.22122
G1 X141.854 Y30.584 E9.67614
G1 X145.192 Y33.463 E10.13104
G1 X148.384 Y36.502 E10.58594
G1 X151.423 Y39.694 E11.04084
G1 X154.302 Y43.031 E11.49574
G1 X157.014 Y46.506 E11.95066
G1 X159.552 Y50.110 E12.40555
G1 X161.910 Y53.833 E12.86046
G1 X164.082 Y57.668 E13.31536
G1 X166.064 Y61.606 E13.77027
G1 X167.850 Y65.635 E14.22517
G1 X169.436 Y69.747 E14.68007
G1 X170.819 Y73.932 E15.13497
G1 X171.995 Y78.180 E15.58989
G1 X172.960 Y82.481 E16.04478
G1 X173.714 Y86.824 E16.49968
G1 X174.254 Y91.198 E16.95460
G1 X174.577 Y95.594 E17.40950
G1 X174.686 Y100.000 E17.86440
G1 X174.577 Y104.406 E18.31931
G1 X174.254 Y108.802 E18.77421
G1 X173.714 Y113.176 E19.22913
G1 X172.960 Y117.519 E19.68402
G1 X171.995 Y121.820 E20.13891
G1 X170.819 Y126.068 E20.59383
G1 X169.436 Y130.253 E21.04874
G1 X167.850 Y134.365 E21.50364
G1 X166.064 Y138.394 E21.95854
G1 X164.082 Y142.332 E22.41345
G1 X161.910 Y146.167 E22.86835
G1 X159.552 Y149.890 E23.32325
G1 X157.014 Y153.494 E23.77815
G1 X154.302 Y156.969 E24.23307
G1 X151.423 Y160.306 E24.68797
G1 X148.384 Y163.498 E25.14287
G1 X145.192 Y166.537 E25.59777
G1 X141.854 Y169.416 E26.05267
G1 X138.380 Y172.128 E26.50759
G1 X134.776 Y174.666 E26.96249
G1 X131.052 Y177.024 E27.41739
G1 X127.217 Y179.197 E27.87229
G1 X123.280 Y181.178 E28.32720
G1 X119.251 Y182.964 E28.78210
G1 X115.139 Y184.551 E29.23700
G1 X110.953 Y185.933 E29.69191
G1 X106.705 Y187.109 E30.14682
G1 X102.405 Y188.075 E30.60172
G1 X98.062 Y188.828 E31.05662
G1 X93.688 Y189.368 E31.51153
G1 X89.292 Y189.692 E31.96643
G1 X84.886 Y189.800 E32.42134
G1 X80.479 Y189.692 E32.87624
G1 X76.117 Y189.370 E33.32774
G1 X71.709 Y188.828 E33.78604
G1 X67.367 Y188.075 E34.24095
G1 X63.066 Y187.109 E34.69585
G1 X62.311 Y186.900 E34.77670
G1 X61.806 Y186.900 E34.82881
G1 X61.718 Y186.101 E34.91178
G1 X62.414 Y185.945 E34.98541
G1 X66.605 Y184.785 E35.43424
G1 X70.734 Y183.421 E35.88306
G1 X74.791 Y181.856 E36.33188
G1 X78.767 Y180.093 E36.78071
G1 X82.651 Y178.138 E37.22953
G1 X86.435 Y175.995 E37.67836
G1 X90.109 Y173.668 E38.12719
G1 X93.665 Y171.164 E38.57600
G1 X97.093 Y168.489 E39.02483
G1 X100.386 Y165.648 E39.47365
G1 X103.535 Y162.650 E39.92248
G1 X106.534 Y159.500 E40.37130
G1 X109.374 Y156.207 E40.82013
G1 X112.050 Y152.779 E41.26895
G1 X114.554 Y149.223 E41.71777
G1 X116.880 Y145.549 E42.16660
G1 X119.024 Y141.766 E42.61542
G1 X120.979 Y137.881 E43.06425
G1 X122.741 Y133.906 E43.51307
G1 X124.306 Y129.848 E43.96189
G1 X125.671 Y125.719 E44.41072
G1 X126.830 Y121.528 E44.85955
G1 X127.783 Y117.285 E45.30837
G1 X128.527 Y113.000 E45.75719
G1 X129.059 Y108.684 E46.20601
G1 X129.379 Y104.347 E46.65484
G1 X129.486 Y100.000 E47.10366
G1 X129.379 Y95.653 E47.55249
G1 X129.059 Y91.316 E48.00131
G1 X128.527 Y87.000 E48.45013
G1 X127.783 Y82.715 E48.89895
G1 X126.822 Y78.441 E49.35115
G1 X125.671 Y74.281 E49.79660
G1 X124.306 Y70.152 E50.24543
G1 X122.741 Y66.094 E50.69425
G1 X120.979 Y62.119 E51.14308
G1 X119.024 Y58.234 E51.59190
G1 X116.880 Y54.451 E52.04072
G1 X114.554 Y50.776 E52.48955
G1 X112.050 Y47.221 E52.93836
G1 X109.374 Y43.793 E53.38720
G1 X106.534 Y40.500 E53.83602
G1 X103.535 Y37.350 E54.28484
G1 X100.386 Y34.352 E54.73367
G1 X97.093 Y31.511 E55.18249
G1 X93.665 Y28.836 E55.63132
G1 X90.109 Y26.332 E56.08013
G1 X86.435 Y24.005 E56.52896
G1 X82.651 Y21.862 E56.97779
G1 X78.767 Y19.907 E57.42661
G1 X74.791 Y18.144 E57.87543
G1 X70.734 Y16.579 E58.32426
G1 X66.605 Y15.215 E58.77308
G1 X62.414 Y14.055 E59.22191
G1 X61.718 Y13.899 E59.29554
G1 X61.800 Y13.160 E59.37232
M106 S89.25
G1 Z0.850 F4800.000
M104 S200 ; set temperature
G1 F1440
G1 X61.806 Y13.100 E59.37851
G1 X62.311 Y13.100 E59.43062
G1 X63.066 Y12.891 E59.51147
G1 X67.367 Y11.925 E59.96637
G1 X71.709 Y11.172 E60.42127
G1 X76.084 Y10.632 E60.87618
G1 X80.479 Y10.308 E61.33108
G1 X84.787 Y10.202 E61.77577
G1 X89.292 Y10.308 E62.24086
G1 X93.688 Y10.632 E62.69578
G1 X98.062 Y11.172 E63.15069
G1 X102.405 Y11.925 E63.60559
G1 X106.705 Y12.891 E64.06049
G1 X110.953 Y14.067 E64.51540
G1 X115.139 Y15.449 E64.97031
G1 X119.251 Y17.036 E65.42521
G1 X123.280 Y18.822 E65.88011
G1 X127.217 Y20.803 E66.33502
G1 X131.052 Y22.976 E66.78992
G1 X134.776 Y25.334 E67.24483
G1 X138.380 Y27.872 E67.69972
G1 X141.854 Y30.584 E68.15464
G1 X145.192 Y33.463 E68.60954
G1 X148.384 Y36.502 E69.06444
G1 X151.423 Y39.694 E69.51934
G1 X154.302 Y43.031 E69.97424
G1 X157.014 Y46.506 E70.42916
G1 X159.552 Y50.110 E70.88406
G1 X161.910 Y53.833 E71.33896
G1 X164.082 Y57.668 E71.79387
G1 X166.064 Y61.606 E72.24877
G1 X167.850 Y65.635 E72.70367
G1 X169.436 Y69.747 E73.15857
G1 X170.819 Y73.932 E73.61348
G1 X171.995 Y78.180 E74.06840
G1 X172.960 Y82.481 E74.52329
G1 X173.714 Y86.824 E74.97819
G1 X174.254 Y91.198 E75.43310
G1 X174.577 Y95.594 E75.88800
G1 X174.686 Y100.000 E76.34291
G1 X174.577 Y104.406 E76.79781
G1 X174.254 Y108.802 E77.25271
G1 X173.714 Y113.176 E77.70763
G1 X172.960 Y117.519 E78.16253
G1 X171.995 Y121.820 E78.61742
G1 X170.819 Y126.068 E79.07234
G1 X169.436 Y130.253 E79.52724
G1 X167.850 Y134.365 E79.98214
G1 X166.064 Y138.394 E80.43704
G1 X164.082 Y142.332 E80.89195
G1 X161.910 Y146.167 E81.34686
G1 X159.552 Y149.890 E81.80176
G1 X157.014 Y153.494 E82.25666
G1 X154.302 Y156.969 E82.71157
G1 X151.423 Y160.306 E83.16647
G1 X148.384 Y163.498 E83.62137
G1 X145.192 Y166.537 E84.07627
G1 X141.854 Y169.416 E84.53118
G1 X138.380 Y172.128 E84.98609
G1 X134.776 Y174.666 E85.44099
G1 X131.052 Y177.024 E85.89589
G1 X127.217 Y179.197 E86.35080
G1 X123.280 Y181.178 E86.80570
G1 X119.251 Y182.964 E87.26061
G1 X115.139 Y184.551 E87.71550
G1 X110.953 Y185.933 E88.17041
G1 X106.705 Y187.109 E88.62532
G1 X102.405 Y188.075 E89.08022
G1 X98.062 Y188.828 E89.53513
G1 X93.688 Y189.368 E89.99004
G1 X89.292 Y189.692 E90.44493
G1 X84.886 Y189.800 E90.89984
G1 X80.479 Y189.692 E91.35474
G1 X76.182 Y189.375 E91.79944
G1 X71.710 Y188.828 E92.26452
G1 X67.367 Y188.075 E92.71944
G1 X63.066 Y187.109 E93.17435
G1 X62.311 Y186.900 E93.25519
G1 X61.806 Y186.900 E93.30730
G1 X61.718 Y186.101 E93.39028
G1 X62.414 Y185.945 E93.46391
G1 X66.605 Y184.785 E93.91273
G1 X70.734 Y183.421 E94.36156
G1 X74.791 Y181.856 E94.81038
G1 X78.767 Y180.093 E95.25921
G1 X82.651 Y178.138 E95.70803
G1 X86.435 Y175.995 E96.15685
G1 X90.109 Y173.668 E96.60568
G1 X93.665 Y171.164 E97.05450
G1 X97.093 Y168.489 E97.50333
G1 X100.386 Y165.648 E97.95215
G1 X103.535 Y162.650 E98.40097
G1 X106.534 Y159.500 E98.84980
G1 X109.374 Y156.207 E99.29862
G1 X112.050 Y152.779 E99.74745
G1 X114.554 Y149.223 E100.19627
G1 X116.880 Y145.549 E100.64509
