; generated by PrusaSlicer 2.0.0 on 2020-04-26 at 15:33:40

; 

; external perimeters extrusion width = 0.80mm
; perimeters extrusion width = 0.80mm
; infill extrusion width = 0.45mm
; solid infill extrusion width = 0.45mm
; top infill extrusion width = 0.40mm
; support material extrusion width = 0.40mm
; first layer extrusion width = 0.80mm

M107
M140 S60; Preheat bed
M104 S140 ; Preheat nozzle
G28 ; home all axes
M190 S60
M104 S205
G1 Z5 F5000 ; lift nozzle
G1 X100 Y100 F3000; Prepare to activate UBL
M109 S205
G29 L1 F3.0 A
; Filament gcode
M900 K0.06
G21 ; set units to millimeters
G90 ; use absolute coordinates
M82 ; use absolute distances for extrusion
G92 E0
G1 Z0.550 F4800.000
G1 E-0.70000 F3000.00000
G92 E0
G1 X22.012 Y18.976 F4800.000
G1 E0.90000 F1800.00000
G1 F2160
G1 X22.012 Y6.089 E2.23013
G1 X22.856 Y5.245 E2.35326
G1 X23.063 Y5.245 E2.37465
G1 X23.063 Y19.352 E3.83061
G1 X24.114 Y19.352 E3.93907
G1 X24.114 Y5.245 E5.39502
G1 X24.150 Y5.245 E5.39869
G1 X24.150 Y1.116 E5.82488
G1 X25.165 Y0.100 E5.97307
G1 X25.165 Y19.352 E7.95999
G1 X26.216 Y19.352 E8.06845
G1 X26.216 Y-0.426 E10.10972
G1 X27.267 Y-0.426 E10.21819
G1 X27.267 Y19.352 E12.25946
G1 X28.318 Y19.352 E12.36792
G1 X28.318 Y-0.426 E14.40919
G1 X29.369 Y-0.426 E14.51765
G1 X29.369 Y19.352 E16.55893
G1 X30.420 Y19.352 E16.66739
G1 X30.420 Y-0.426 E18.70866
G1 X31.470 Y-0.426 E18.81712
G1 X31.470 Y19.352 E20.85840
G1 X32.521 Y19.352 E20.96686
G1 X32.521 Y-0.426 E23.00813
G1 X33.572 Y-0.426 E23.11659
G1 X33.572 Y19.352 E25.15787
G1 X34.623 Y19.352 E25.26633
G1 X34.623 Y-0.426 E27.30760
G1 X35.674 Y-0.426 E27.41606
G1 X35.674 Y19.352 E29.45734
G1 X36.725 Y19.352 E29.56580
G1 X36.725 Y-0.426 E31.60707
G1 X37.776 Y-0.426 E31.71553
G1 X37.776 Y19.352 E33.75681
G1 X38.827 Y19.352 E33.86527
G1 X38.827 Y-0.426 E35.90654
G1 X39.878 Y-0.426 E36.01500
G1 X39.878 Y19.352 E38.05628
G1 X40.928 Y19.352 E38.16474
G1 X40.928 Y-0.426 E40.20601
G1 X41.979 Y-0.426 E40.31447
G1 X41.979 Y19.352 E42.35575
G1 X43.030 Y19.352 E42.46421
G1 X43.030 Y0.218 E44.43900
G1 X43.928 Y1.116 E44.57005
G1 X43.928 Y5.245 E44.99623
G1 X44.081 Y5.245 E45.01203
G1 X44.081 Y19.352 E46.46798
G1 X45.132 Y19.352 E46.57644
G1 X45.132 Y5.245 E48.03240
G1 X45.222 Y5.245 E48.04166
G1 X46.183 Y6.206 E48.18195
G1 X46.183 Y19.352 E49.53870
G1 X47.234 Y19.352 E49.64716
G1 X47.234 Y8.081 E50.81045
G1 X48.285 Y8.081 E50.91891
G1 X48.285 Y19.352 E52.08220
G1 X49.335 Y19.352 E52.19067
G1 X49.335 Y8.081 E53.35396
G1 X50.386 Y8.081 E53.46242
G1 X50.386 Y19.352 E54.62571
G1 X51.437 Y19.352 E54.73417
G1 X51.437 Y8.081 E55.89746
G1 X52.488 Y8.081 E56.00592
G1 X52.488 Y19.352 E57.16921
G1 X53.539 Y19.352 E57.27767
G1 X53.539 Y8.081 E58.44097
G1 X54.590 Y8.081 E58.54943
G1 X54.590 Y19.352 E59.71272
G1 X55.641 Y19.352 E59.82118
G1 X55.641 Y6.488 E61.14887
G1 X56.692 Y5.437 E61.30225
G1 X56.692 Y19.352 E62.73840
G1 X57.743 Y19.352 E62.84686
G1 X57.743 Y5.245 E64.30281
G1 X58.793 Y5.245 E64.41127
G1 X58.793 Y21.262 E66.06434
G1 X59.719 Y22.187 E66.19946
G1 X59.844 Y22.187 E66.21238
G1 X59.844 Y5.245 E67.96099
G1 X60.895 Y5.245 E68.06945
G1 X60.895 Y22.187 E69.81806
G1 X61.946 Y22.187 E69.92652
G1 X61.946 Y5.245 E71.67514
G1 X62.997 Y5.245 E71.78360
G1 X62.997 Y22.187 E73.53221
G1 X64.048 Y22.187 E73.64067
G1 X64.048 Y5.245 E75.38929
G1 X65.099 Y5.245 E75.49775
G1 X65.099 Y22.187 E77.24636
G1 X66.150 Y22.187 E77.35482
G1 X66.150 Y5.245 E79.10343
G1 X67.200 Y5.245 E79.21189
G1 X67.200 Y23.998 E81.14732
G1 X68.226 Y25.023 E81.29701
G1 X68.251 Y25.023 E81.29963
G1 X68.251 Y5.245 E83.34090
G1 X69.302 Y5.245 E83.44936
G1 X69.302 Y25.023 E85.49064
G1 X70.353 Y25.023 E85.59910
G1 X70.353 Y3.118 E87.85991
G1 X71.062 Y2.409 E87.96332
G1 X71.404 Y2.409 E87.99866
G1 X71.404 Y25.023 E90.33259
G1 X72.355 Y25.023 E90.43078
G1 X72.355 Y26.317 E90.56430
G1 X72.455 Y26.416 E90.57883
G1 X72.455 Y2.409 E93.05656
G1 X73.506 Y2.409 E93.16502
G1 X73.506 Y27.467 E95.75122
G1 X73.897 Y27.859 E95.80836
G1 X74.557 Y27.859 E95.87641
G1 X74.557 Y2.409 E98.50301
G1 X75.608 Y2.409 E98.61147
G1 X75.608 Y27.859 E101.23806
G1 X76.658 Y27.859 E101.34653
G1 X76.658 Y2.409 E103.97312
G1 X77.709 Y2.409 E104.08158
G1 X77.709 Y27.859 E106.70818
G1 X78.027 Y27.859 E106.74092
G1 X78.027 Y29.152 E106.87445
G1 X78.760 Y29.886 E106.98152
G1 X78.760 Y2.409 E109.81736
G1 X79.811 Y2.409 E109.92582
G1 X79.811 Y30.694 E112.84507
G1 X80.862 Y30.694 E112.95353
G1 X80.862 Y2.409 E115.87279
G1 X81.913 Y2.409 E115.98125
G1 X81.913 Y30.694 E118.90051
G1 X82.964 Y30.694 E119.00897
G1 X82.964 Y2.409 E121.92823
G1 X84.015 Y2.409 E122.03669
G1 X84.015 Y32.305 E125.12216
G1 X85.066 Y33.356 E125.27555
G1 X85.066 Y2.409 E128.46948
G1 X86.116 Y2.409 E128.57794
G1 X86.116 Y33.530 E131.78986
G1 X86.533 Y33.530 E131.83291
G1 X86.533 Y34.824 E131.96643
G1 X87.167 Y35.457 E132.05894
G1 X87.167 Y2.409 E135.46980
G1 X88.218 Y2.409 E135.57826
G1 X88.218 Y36.366 E139.08284
G1 X89.269 Y36.366 E139.19130
G1 X89.269 Y2.409 E142.69588
G1 X90.320 Y2.409 E142.80434
G1 X90.320 Y36.366 E146.30891
G1 X91.371 Y36.366 E146.41738
G1 X91.371 Y2.409 E149.92195
G1 X92.422 Y2.409 E150.03041
G1 X92.422 Y37.876 E153.69091
G1 X93.473 Y38.927 E153.84430
G1 X93.473 Y2.409 E157.61326
G1 X94.523 Y2.409 E157.72172
G1 X94.523 Y39.201 E161.51896
G1 X95.040 Y39.201 E161.57230
G1 X95.040 Y40.495 E161.70582
G1 X95.574 Y41.029 E161.78377
G1 X95.574 Y2.409 E165.76965
G1 X96.263 Y2.409 E165.84070
G1 X96.625 Y2.772 E165.89360
G1 X96.625 Y42.037 E169.94610
G1 X97.676 Y42.037 E170.05456
G1 X97.676 Y3.823 E173.99859
G1 X97.805 Y3.951 E174.01736
G1 X97.805 Y5.245 E174.15088
G1 X98.727 Y5.245 E174.24607
G1 X98.727 Y44.182 E178.26467
G1 X99.418 Y44.872 E178.36551
G1 X99.778 Y44.872 E178.40267
G1 X99.778 Y5.245 E182.49257
G1 X100.712 Y5.245 E182.58893
G1 X100.712 Y3.951 E182.72245
G1 X100.829 Y3.834 E182.73956
G1 X100.829 Y46.283 E187.12070
G1 X101.880 Y47.334 E187.27409
G1 X101.880 Y2.783 E191.87215
G1 X102.253 Y2.409 E191.92671
G1 X102.931 Y2.409 E191.99659
G1 X102.931 Y47.708 E196.67182
G1 X103.547 Y47.708 E196.73546
G1 X103.547 Y51.837 E197.16164
G1 X103.981 Y52.272 E197.22502
G1 X103.981 Y2.409 E202.37125
G1 X105.032 Y2.409 E202.47971
G1 X105.032 Y53.323 E207.73439
G1 X105.089 Y53.379 E207.74268
G1 X106.083 Y53.379 E207.84528
G1 X106.083 Y2.409 E213.10582
G1 X107.134 Y2.409 E213.21428
G1 X107.134 Y55.424 E218.68589
G1 X107.925 Y56.215 E218.80129
G1 X108.185 Y56.215 E218.82815
G1 X108.185 Y2.409 E224.38135
G1 X109.236 Y2.409 E224.48981
G1 X109.236 Y60.362 E230.47100
G1 X110.287 Y61.413 E230.62439
G1 X110.287 Y2.409 E236.71404
G1 X111.338 Y2.409 E236.82250
G1 X111.338 Y61.886 E242.96102
G1 X112.054 Y61.886 E243.03496
G1 X112.054 Y63.180 E243.16849
G1 X112.389 Y63.514 E243.21730
G1 X112.389 Y2.409 E249.52387
G1 X113.277 Y2.409 E249.61552
G1 X113.439 Y2.572 E249.63930
G1 X113.439 Y64.565 E256.03752
G1 X113.596 Y64.722 E256.06037
G1 X114.490 Y64.722 E256.15267
G1 X114.490 Y3.623 E262.45859
G1 X114.818 Y3.951 E262.50648
G1 X114.818 Y8.081 E262.93267
G1 X115.541 Y8.081 E263.00726
G1 X115.541 Y72.338 E269.63921
G1 X116.432 Y73.229 E269.76917
G1 X116.592 Y73.229 E269.78573
G1 X116.592 Y8.081 E276.50958
G1 X117.643 Y8.081 E276.61804
G1 X117.643 Y73.229 E283.34189
G1 X117.725 Y73.229 E283.35039
G1 X117.725 Y77.358 E283.77657
G1 X118.694 Y78.326 E283.91794
G1 X118.694 Y8.081 E291.16793
G1 X119.745 Y8.081 E291.27639
G1 X119.745 Y78.900 E298.58556
G1 X120.561 Y78.900 E298.66980
G1 X120.561 Y91.536 E299.97397
G1 X120.796 Y91.771 E300.00822
G1 X120.796 Y8.081 E308.64578
G1 X121.783 Y8.081 E308.74773
G1 X121.846 Y8.144 E308.75693
G1 X121.846 Y92.822 E317.49644
G1 X122.103 Y93.078 E317.53386
G1 X122.897 Y93.078 E317.61586
G1 X122.897 Y9.195 E326.27336
G1 X123.325 Y9.623 E326.33582
G1 X123.325 Y10.916 E326.46935
G1 X123.948 Y10.916 E326.53364
G1 X123.948 Y189.489 E344.96392
G1 X124.999 Y189.489 E345.07238
G1 X124.999 Y10.916 E363.50266
G1 X126.050 Y10.916 E363.61112
G1 X126.050 Y189.489 E382.04140
G1 X127.101 Y189.489 E382.14986
G1 X127.101 Y10.916 E400.58014
G1 X127.455 Y10.916 E400.61665
G1 X128.152 Y11.613 E400.71841
G1 X128.152 Y188.792 E419.00479
G1 X128.997 Y187.947 E419.12809
G1 X128.997 Y186.653 E419.26161
G1 X129.203 Y186.653 E419.28288
G1 X129.203 Y13.752 E437.12784
G1 X130.254 Y13.752 E437.23630
G1 X130.254 Y186.653 E455.08126
G1 X131.304 Y186.653 E455.18972
G1 X131.304 Y13.752 E473.03468
G1 X132.355 Y13.752 E473.14314
G1 X132.355 Y186.653 E490.98810
G1 X133.126 Y186.653 E491.06763
G1 X133.406 Y186.373 E491.10854
G1 X133.406 Y14.032 E508.89564
G1 X134.457 Y15.083 E509.04903
G1 X134.457 Y185.322 E526.61920
G1 X134.668 Y185.111 E526.64996
G1 X134.668 Y183.818 E526.78348
G1 X135.508 Y183.818 E526.87019
G1 X135.508 Y16.587 E544.12983
G1 X136.559 Y16.587 E544.23829
G1 X136.559 Y183.220 E561.43628
G1 X137.503 Y182.276 E561.57414
G1 X137.503 Y180.982 E561.70767
G1 X137.610 Y180.982 E561.71864
G1 X137.610 Y16.587 E578.68562
G1 X138.661 Y16.587 E578.79408
G1 X138.661 Y180.982 E595.76105
G1 X139.711 Y180.982 E595.86951
G1 X139.711 Y17.502 E612.74212
G1 X140.339 Y18.129 E612.83371
G1 X140.339 Y19.423 E612.96723
G1 X140.762 Y19.423 E613.01093
G1 X140.762 Y180.982 E629.68524
G1 X141.633 Y180.982 E629.77507
G1 X141.813 Y180.802 E629.80142
G1 X141.813 Y19.604 E646.43847
G1 X142.864 Y20.655 E646.59186
G1 X142.864 Y179.751 E663.01199
G1 X143.175 Y179.440 E663.05731
G1 X143.175 Y178.147 E663.19083
G1 X143.915 Y178.147 E663.26724
G1 X143.915 Y22.259 E679.35624
G1 X144.468 Y22.259 E679.41334
G1 X144.966 Y22.756 E679.48597
G1 X144.966 Y177.649 E695.47226
G1 X146.010 Y176.605 E695.62469
G1 X146.017 Y25.094 E711.26188
G1 X147.068 Y25.094 E711.37034
G1 X147.068 Y175.311 E726.87402
G1 X147.304 Y175.311 E726.89840
G1 X148.119 Y174.496 E727.01730
G1 X148.119 Y25.094 E742.43690
G1 X149.169 Y25.094 E742.54536
G1 X149.169 Y172.475 E757.75637
G1 X150.140 Y172.475 E757.85650
G1 X150.220 Y172.395 E757.86828
G1 X150.220 Y25.175 E773.06263
G1 X151.271 Y26.226 E773.21601
G1 X151.271 Y171.344 E788.19344
G1 X151.681 Y170.933 E788.25332
G1 X151.681 Y169.640 E788.38684
G1 X152.322 Y169.640 E788.45296
G1 X152.322 Y27.930 E803.07865
G1 X152.975 Y27.930 E803.14605
G1 X153.373 Y28.328 E803.20411
G1 X153.373 Y169.242 E817.74770
G1 X154.424 Y168.191 E817.90108
G1 X154.424 Y29.379 E832.22774
G1 X154.517 Y29.472 E832.24135
G1 X154.517 Y30.766 E832.37487
G1 X155.475 Y30.766 E832.47371
G1 X155.475 Y166.804 E846.51408
G1 X155.811 Y166.804 E846.54876
G1 X156.526 Y166.089 E846.65310
G1 X156.526 Y31.480 E860.54592
G1 X157.353 Y32.307 E860.66664
G1 X157.353 Y33.601 E860.80016
G1 X157.577 Y33.601 E860.82326
G1 X157.577 Y163.968 E874.27830
G1 X158.627 Y163.968 E874.38676
G1 X158.627 Y33.601 E887.84181
G1 X158.646 Y33.601 E887.84377
G1 X159.678 Y34.633 E887.99438
G1 X159.678 Y162.937 E901.23644
G1 X160.188 Y162.427 E901.31089
G1 X160.188 Y161.133 E901.44441
G1 X160.729 Y161.133 E901.50023
G1 X160.729 Y39.272 E914.07729
G1 X161.482 Y39.272 E914.15499
G1 X161.780 Y39.570 E914.19849
G1 X161.780 Y160.835 E926.71404
G1 X162.831 Y159.784 E926.86743
G1 X162.831 Y40.621 E939.16606
G1 X163.024 Y40.814 E939.19423
G1 X163.024 Y42.108 E939.32776
G1 X163.882 Y42.108 E939.41630
G1 X163.882 Y158.297 E951.40804
G1 X164.318 Y158.297 E951.45302
G1 X164.933 Y157.682 E951.54279
G1 X164.933 Y42.723 E963.40758
G1 X165.860 Y43.650 E963.54287
G1 X165.860 Y47.779 E963.96905
G1 X165.984 Y47.779 E963.98185
G1 X165.984 Y152.626 E974.80295
G1 X167.034 Y152.626 E974.91141
G1 X167.034 Y47.779 E985.73251
G1 X167.153 Y47.779 E985.74477
G1 X168.085 Y48.711 E985.88081
G1 X168.085 Y151.694 E996.50952
G1 X168.695 Y151.084 E996.59853
G1 X168.695 Y149.790 E996.73205
G1 X169.136 Y149.790 E996.77757
G1 X169.136 Y50.615 E1007.01335
G1 X169.989 Y50.615 E1007.10135
G1 X170.187 Y50.813 E1007.13029
G1 X170.187 Y149.592 E1017.32515
G1 X171.238 Y148.541 E1017.47853
G1 X171.238 Y51.864 E1027.45648
G1 X171.531 Y52.157 E1027.49921
G1 X171.531 Y53.451 E1027.63274
G1 X172.289 Y53.451 E1027.71098
G1 X172.289 Y146.955 E1037.36143
G1 X173.340 Y146.955 E1037.46989
G1 X173.340 Y53.451 E1047.12035
G1 X174.391 Y53.451 E1047.22881
G1 X174.391 Y146.955 E1056.87927
G1 X175.442 Y146.955 E1056.98773
G1 X175.442 Y53.451 E1066.63818
G1 X175.660 Y53.451 E1066.66074
G1 X176.492 Y54.283 E1066.78222
G1 X176.492 Y63.889 E1067.77372
G1 X175.625 Y64.757 E1067.90039
G1 X176.492 Y65.625 E1068.02707
G1 X176.492 Y146.122 E1076.33509
G1 X177.202 Y145.413 E1076.43866
G1 X177.202 Y127.105 E1078.32815
G1 X177.543 Y127.105 E1078.36337
G1 X177.543 Y73.300 E1083.91658
G1 X178.496 Y73.300 E1084.01488
G1 X178.594 Y73.398 E1084.02925
G1 X178.594 Y127.007 E1089.56213
G1 X179.645 Y125.956 E1089.71552
G1 X179.645 Y74.449 E1095.03149
G1 X180.038 Y74.842 E1095.08879
G1 X180.038 Y90.314 E1096.68561
G1 X180.696 Y90.314 E1096.75356
G1 X180.696 Y110.092 E1098.79483
G1 X181.331 Y110.092 E1098.86041
G1 X181.747 Y109.676 E1098.92105
G1 X181.747 Y90.729 E1100.87657
G1 X182.798 Y91.780 E1101.02995
G1 X182.798 Y109.093 E1102.81687
G1 E1102.11687 F3000.00000
G92 E0
G1 X122.897 Y189.820 F4800.000
G1 E0.90000 F1800.00000
G1 F2160
G1 X122.897 Y104.492 E9.70664
G1 X122.103 Y104.492 E9.78864
G1 X121.846 Y104.748 E9.82606
G1 X121.846 Y189.489 E18.57207
G1 X120.796 Y189.489 E18.68053
G1 X120.796 Y105.799 E27.31809
G1 X120.561 Y106.034 E27.35234
G1 X120.561 Y118.670 E28.65651
G1 X119.745 Y118.670 E28.74075
G1 X119.745 Y191.528 E36.26033
G1 X118.948 Y192.325 E36.37665
G1 X118.694 Y192.325 E36.40286
G1 X118.694 Y119.243 E43.94551
G1 X117.725 Y120.212 E44.08688
G1 X117.725 Y127.177 E44.80572
G1 X117.643 Y127.177 E44.81422
G1 X117.643 Y192.325 E51.53807
G1 X116.592 Y192.325 E51.64653
G1 X116.592 Y127.177 E58.37038
G1 X116.432 Y127.177 E58.38694
G1 X115.541 Y128.067 E58.51690
G1 X115.541 Y192.325 E65.14885
G1 X114.818 Y192.325 E65.22344
G1 X114.818 Y196.454 E65.64963
G1 X114.490 Y196.782 E65.69753
G1 X114.490 Y132.848 E72.29611
G1 X113.596 Y132.848 E72.38841
G1 X113.439 Y133.004 E72.41126
G1 X113.439 Y197.833 E79.10214
G1 X113.277 Y197.996 E79.12591
G1 X112.388 Y197.996 E79.21757
G1 X112.388 Y134.055 E85.81679
G1 X112.054 Y134.390 E85.86561
G1 X112.054 Y138.519 E86.29180
G1 X111.338 Y138.519 E86.36574
G1 X111.338 Y197.996 E92.50426
G1 X110.287 Y197.996 E92.61272
G1 X110.287 Y138.993 E98.70237
G1 X109.236 Y140.044 E98.85576
G1 X109.236 Y197.996 E104.83694
G1 X108.185 Y197.996 E104.94540
G1 X108.185 Y144.190 E110.49861
G1 X107.925 Y144.190 E110.52547
G1 X107.134 Y144.981 E110.64087
G1 X107.134 Y197.996 E116.11247
G1 X106.083 Y197.996 E116.22093
G1 X106.083 Y147.026 E121.48148
G1 X105.089 Y147.026 E121.58408
G1 X105.032 Y147.083 E121.59236
G1 X105.032 Y197.996 E126.84705
G1 X103.981 Y197.996 E126.95551
G1 X103.981 Y148.134 E132.10173
G1 X103.547 Y148.568 E132.16511
G1 X103.547 Y152.697 E132.59130
G1 X102.931 Y152.697 E132.65494
G1 X102.931 Y197.996 E137.33016
G1 X102.253 Y197.996 E137.40004
G1 X101.880 Y197.622 E137.45460
G1 X101.880 Y153.071 E142.05266
G1 X100.829 Y154.122 E142.20605
G1 X100.829 Y196.571 E146.58719
G1 X100.712 Y196.454 E146.60430
G1 X100.712 Y195.160 E146.73782
G1 X99.778 Y195.160 E146.83418
G1 X99.778 Y155.533 E150.92408
G1 X99.418 Y155.533 E150.96124
G1 X98.727 Y156.224 E151.06208
G1 X98.727 Y195.160 E155.08068
G1 X97.676 Y195.160 E155.18914
G1 X97.676 Y158.368 E158.98638
G1 X96.625 Y158.368 E159.09484
G1 X96.625 Y195.160 E162.89208
G1 X95.574 Y195.160 E163.00054
G1 X95.574 Y159.376 E166.69375
G1 X95.040 Y159.910 E166.77170
G1 X95.040 Y161.204 E166.90522
G1 X94.523 Y161.204 E166.95857
G1 X94.523 Y196.900 E170.64266
G1 X93.473 Y197.950 E170.79605
G1 X93.473 Y161.204 E174.58860
G1 X92.422 Y161.204 E174.69706
G1 X92.422 Y197.996 E178.49430
G1 X91.371 Y197.996 E178.60276
G1 X91.371 Y161.204 E182.40000
G1 X90.911 Y161.204 E182.44746
G1 X90.320 Y161.795 E182.53373
G1 X90.320 Y197.996 E186.26997
G1 X89.269 Y197.996 E186.37843
G1 X89.269 Y164.040 E189.88301
G1 X88.218 Y164.040 E189.99147
G1 X88.218 Y197.996 E193.49605
G1 X87.167 Y197.996 E193.60451
G1 X87.167 Y164.948 E197.01536
G1 X86.533 Y165.582 E197.10787
G1 X86.533 Y166.875 E197.24140
