; generated by PrusaSlicer 2.0.0 on 2020-04-26 at 15:35:54

; 

; external perimeters extrusion width = 0.80mm
; perimeters extrusion width = 0.80mm
; infill extrusion width = 0.45mm
; solid infill extrusion width = 0.45mm
; top infill extrusion width = 0.40mm
; first layer extrusion width = 0.80mm

M107
M140 S60; Preheat bed
M104 S140 ; Preheat nozzle
G28 ; home all axes
M190 S60
M104 S205
G1 Z5 F5000 ; lift nozzle
G1 X100 Y100 F3000; Prepare to activate UBL
M109 S205
G29 L1 F3.0 A
; Filament gcode
M900 K0.06
G21 ; set units to millimeters
G90 ; use absolute coordinates
M82 ; use absolute distances for extrusion
G92 E0
G1 Z0.550 F4800.000
G1 E-0.70000 F3000.00000
G92 E0
G1 X61.806 Y13.100 F4800.000
G1 E0.90000 F1800.00000
G1 F864
G1 X62.311 Y13.100 E0.95211
G1 X63.066 Y12.891 E1.03295
G1 X67.367 Y11.925 E1.48786
G1 X71.709 Y11.172 E1.94276
G1 X76.084 Y10.632 E2.39767
G1 X80.479 Y10.308 E2.85257
G1 X84.853 Y10.201 E3.30407
G1 X89.292 Y10.308 E3.76237
G1 X93.688 Y10.632 E4.21728
G1 X98.062 Y11.172 E4.67218
G1 X102.405 Y11.925 E5.12709
G1 X106.705 Y12.891 E5.58199
G1 X110.953 Y14.067 E6.03690
G1 X115.139 Y15.449 E6.49181
G1 X119.251 Y17.036 E6.94671
G1 X123.280 Y18.822 E7.40161
G1 X127.217 Y20.803 E7.85651
G1 X131.052 Y22.976 E8.31142
G1 X134.776 Y25.334 E8.76632
G1 X138.380 Y27.872 E9.22122
G1 X141.854 Y30.584 E9.67614
G1 X145.192 Y33.463 E10.13104
G1 X148.384 Y36.502 E10.58594
G1 X151.423 Y39.694 E11.04084
G1 X154.302 Y43.031 E11.49574
G1 X157.014 Y46.506 E11.95066
G1 X159.552 Y50.110 E12.40555
G1 X161.910 Y53.833 E12.86046
G1 X164.082 Y57.668 E13.31536
G1 X166.064 Y61.606 E13.77027
G1 X167.850 Y65.635 E14.22517
G1 X169.436 Y69.747 E14.68007
G1 X170.819 Y73.932 E15.13497
G1 X171.995 Y78.180 E15.58989
G1 X172.960 Y82.481 E16.04478
G1 X173.714 Y86.824 E16.49968
G1 X174.254 Y91.198 E16.95460
G1 X174.577 Y95.594 E17.40950
G1 X174.686 Y100.000 E17.86440
G1 X174.577 Y104.406 E18.31931
G1 X174.254 Y108.802 E18.77421
G1 X173.714 Y113.176 E19.22913
G1 X172.960 Y117.519 E19.68402
G1 X171.995 Y121.820 E20.13891
G1 X170.819 Y126.068 E20.59383
G1 X169.436 Y130.253 E21.04874
G1 X167.850 Y134.365 E21.50364
G1 X166.064 Y138.394 E21.95854
G1 X164.082 Y142.332 E22.41345
G1 X161.910 Y146.167 E22.86835
G1 X159.552 Y149.890 E23.32325
G1 X157.014 Y153.494 E23.77815
G1 X154.302 Y156.969 E24.23307
G1 X151.423 Y160.306 E24.68797
G1 X148.384 Y163.498 E25.14287
G1 X145.192 Y166.537 E25.59777
G1 X141.854 Y169.416 E26.05267
G1 X138.380 Y172.128 E26.50759
G1 X134.776 Y174.666 E26.96249
G1 X131.052 Y177.024 E27.41739
G1 X127.217 Y179.197 E27.87229
G1 X123.280 Y181.178 E28.32720
G1 X119.251 Y182.964 E28.78210
G1 X115.139 Y184.551 E29.23700
G1 X110.953 Y185.933 E29.69191
G1 X106.705 Y187.109 E30.14682
G1 X102.405 Y188.075 E30.60172
G1 X98.062 Y188.828 E31.05662
G1 X93.688 Y189.368 E31.51153
G1 X89.292 Y189.692 E31.96643
G1 X84.886 Y189.800 E32.42134
G1 X80.479 Y189.692 E32.87624
G1 X76.117 Y189.370 E33.32774
G1 X71.709 Y188.828 E33.78604
G1 X67.367 Y188.075 E34.24095
G1 X63.066 Y187.109 E34.69585
G1 X62.311 Y186.900 E34.77670
G1 X61.806 Y186.900 E34.82881
G1 X61.718 Y186.101 E34.91178
G1 X62.414 Y185.945 E34.98541
G1 X66.605 Y184.785 E35.43424
G1 X70.734 Y183.421 E35.88306
G1 X74.791 Y181.856 E36.33188
G1 X78.767 Y180.093 E36.78071
G1 X82.651 Y178.138 E37.22953
G1 X86.435 Y175.995 E37.67836
G1 X90.109 Y173.668 E38.12719
G1 X93.665 Y171.164 E38.57600
G1 X97.093 Y168.489 E39.02483
G1 X100.386 Y165.648 E39.47365
G1 X103.535 Y162.650 E39.92248
G1 X106.534 Y159.500 E40.37130
G1 X109.374 Y156.207 E40.82013
G1 X112.050 Y152.779 E41.26895
G1 X114.554 Y149.223 E41.71777
G1 X116.880 Y145.549 E42.16660
G1 X119.024 Y141.766 E42.61542
G1 X120.979 Y137.881 E43.06425
G1 X122.741 Y133.906 E43.51307
G1 X124.306 Y129.848 E43.96189
G1 X125.671 Y125.719 E44.41072
G1 X126.830 Y121.528 E44.85955
G1 X127.783 Y117.285 E45.30837
G1 X128.527 Y113.000 E45.75719
G1 X129.059 Y108.684 E46.20601
G1 X129.379 Y104.347 E46.65484
G1 X129.486 Y100.000 E47.10366
G1 X129.379 Y95.653 E47.55249
G1 X129.059 Y91.316 E48.00131
G1 X128.527 Y87.000 E48.45013
G1 X127.783 Y82.715 E48.89895
G1 X126.822 Y78.441 E49.35115
G1 X125.671 Y74.281 E49.79660
G1 X124.306 Y70.152 E50.24543
G1 X122.741 Y66.094 E50.69425
G1 X120.979 Y62.119 E51.14308
G1 X119.024 Y58.234 E51.59190
G1 X116.880 Y54.451 E52.04072
G1 X114.554 Y50.776 E52.48955
G1 X112.050 Y47.221 E52.93836
G1 X109.374 Y43.793 E53.38720
G1 X106.534 Y40.500 E53.83602
G1 X103.535 Y37.350 E54.28484
G1 X100.386 Y34.352 E54.73367
G1 X97.093 Y31.511 E55.18249
G1 X93.665 Y28.836 E55.63132
G1 X90.109 Y26.332 E56.08013
G1 X86.435 Y24.005 E56.52896
G1 X82.651 Y21.862 E56.97779
G1 X78.767 Y19.907 E57.42661
G1 X74.791 Y18.144 E57.87543
G1 X70.734 Y16.579 E58.32426
G1 X66.605 Y15.215 E58.77308
G1 X62.414 Y14.055 E59.22191
G1 X61.718 Y13.899 E59.29554
G1 X61.800 Y13.160 E59.37232
G1 E58.67232 F3000.00000
G92 E0
G1 X31.800 Y12.209 F4800.000
G1 E0.90000 F1800.00000
G1 F864
G1 X32.699 Y12.257 E0.99289
G1 X32.997 Y6.564 E1.58121
G1 X33.796 Y6.606 E1.66377
G1 X33.498 Y12.299 E2.25208
G1 X34.397 Y12.345 E2.34496
G1 X34.695 Y6.653 E2.93324
G1 X37.352 Y6.793 E3.20784
G1 X37.539 Y6.840 E3.22777
G1 X37.662 Y6.932 E3.24357
G1 X37.740 Y7.063 E3.25936
G1 X37.762 Y7.215 E3.27516
G1 X37.724 Y7.363 E3.29094
G1 X37.633 Y7.486 E3.30674
G1 X37.501 Y7.564 E3.32253
G1 X37.310 Y7.591 E3.34247
G1 X35.452 Y7.494 E3.53450
G1 X35.195 Y12.387 E4.04022
G1 X60.986 Y13.739 E6.70566
G1 X60.986 Y12.866 E6.79580
G1 X61.302 Y12.550 E6.84190
G1 X62.872 Y12.115 E7.01004
G1 X67.211 Y11.141 E7.46900
G1 X71.592 Y10.381 E7.92796
G1 X75.401 Y9.911 E8.32402
G1 X75.194 Y8.870 E8.43357
G1 X75.322 Y8.222 E8.50171
G1 X75.689 Y7.673 E8.56985
G1 X76.239 Y7.306 E8.63805
G1 X76.916 Y7.170 E8.70933
G1 X82.476 Y7.170 E9.28318
G1 X82.476 Y7.970 E9.36575
G1 X76.846 Y7.970 E9.94675
G1 X76.538 Y8.031 E9.97916
G1 X76.244 Y8.228 E10.01571
G1 X76.047 Y8.523 E10.05229
G1 X75.978 Y8.870 E10.08884
G1 X76.047 Y9.217 E10.12539
G1 X76.244 Y9.512 E10.16196
G1 X76.538 Y9.709 E10.19852
G1 X76.862 Y9.773 E10.23261
G1 X80.440 Y9.509 E10.60288
G1 X84.886 Y9.400 E11.06184
G1 X89.331 Y9.509 E11.52080
G1 X93.766 Y9.836 E11.97975
G1 X98.180 Y10.381 E12.43870
G1 X102.561 Y11.141 E12.89766
G1 X106.552 Y12.037 E13.31988
G1 X107.061 Y7.931 E13.74689
G1 X107.127 Y7.680 E13.77372
G1 X107.239 Y7.527 E13.79325
G1 X107.503 Y7.407 E13.82327
G1 X107.731 Y7.588 E13.85329
G1 X107.802 Y7.763 E13.87281
G1 X107.805 Y8.023 E13.89964
G1 X107.285 Y12.222 E14.33626
G1 X111.185 Y13.301 E14.75399
G1 X115.408 Y14.696 E15.21295
G1 X119.557 Y16.297 E15.67190
G1 X123.622 Y18.099 E16.13085
G1 X127.594 Y20.098 E16.58981
G1 X131.463 Y22.290 E17.04876
G1 X135.220 Y24.669 E17.50772
G1 X138.856 Y27.229 E17.96667
G1 X142.362 Y29.965 E18.42563
G1 X145.729 Y32.870 E18.88459
G1 X148.950 Y35.936 E19.34354
G1 X152.016 Y39.157 E19.80250
G1 X154.920 Y42.524 E20.26145
G1 X157.656 Y46.030 E20.72041
G1 X160.217 Y49.665 E21.17936
G1 X162.596 Y53.422 E21.63832
G1 X164.788 Y57.292 E22.09727
G1 X166.713 Y61.116 E22.53917
G1 X170.494 Y59.338 E22.97035
G1 X170.742 Y59.261 E22.99718
G1 X170.930 Y59.273 E23.01669
G1 X171.174 Y59.433 E23.04673
G1 X171.141 Y59.722 E23.07675
G1 X171.031 Y59.875 E23.09625
G1 X170.813 Y60.017 E23.12310
G1 X167.024 Y61.798 E23.55518
G1 X168.589 Y65.329 E23.95382
G1 X170.190 Y69.478 E24.41278
G1 X171.585 Y73.700 E24.87175
G1 X172.771 Y77.986 E25.33069
G1 X173.744 Y82.325 E25.78964
G1 X174.505 Y86.706 E26.24860
G1 X175.050 Y91.120 E26.70756
G1 X175.376 Y95.554 E27.16651
G1 X175.486 Y100.000 E27.62547
G1 X175.376 Y104.446 E28.08442
G1 X175.050 Y108.880 E28.54338
G1 X174.505 Y113.294 E29.00233
G1 X173.744 Y117.675 E29.46130
G1 X172.771 Y122.014 E29.92024
G1 X171.585 Y126.300 E30.37919
G1 X170.190 Y130.522 E30.83816
G1 X168.589 Y134.671 E31.29711
G1 X167.024 Y138.202 E31.69576
G1 X170.813 Y139.983 E32.12784
G1 X171.031 Y140.125 E32.15468
G1 X171.141 Y140.278 E32.17418
G1 X171.174 Y140.567 E32.20421
G1 X170.930 Y140.727 E32.23425
G1 X170.742 Y140.739 E32.25376
G1 X170.494 Y140.661 E32.28059
G1 X166.713 Y138.884 E32.71176
G1 X164.788 Y142.708 E33.15366
G1 X162.596 Y146.578 E33.61261
G1 X160.217 Y150.335 E34.07158
G1 X157.656 Y153.970 E34.53052
G1 X154.920 Y157.476 E34.98949
G1 X152.016 Y160.843 E35.44844
G1 X148.950 Y164.064 E35.90740
G1 X145.729 Y167.130 E36.36635
G1 X142.362 Y170.035 E36.82530
G1 X138.856 Y172.771 E37.28427
G1 X135.220 Y175.331 E37.74321
G1 X131.463 Y177.710 E38.20218
G1 X127.594 Y179.902 E38.66113
G1 X123.622 Y181.901 E39.12008
G1 X119.557 Y183.703 E39.57904
G1 X115.408 Y185.304 E40.03799
G1 X111.185 Y186.699 E40.49695
G1 X107.285 Y187.778 E40.91468
G1 X107.805 Y191.977 E41.35130
G1 X107.802 Y192.236 E41.37812
G1 X107.731 Y192.412 E41.39765
G1 X107.504 Y192.593 E41.42767
G1 X107.239 Y192.473 E41.45769
G1 X107.127 Y192.320 E41.47722
G1 X107.061 Y192.069 E41.50404
G1 X106.552 Y187.963 E41.93106
G1 X102.561 Y188.859 E42.35328
G1 X98.180 Y189.619 E42.81223
G1 X93.766 Y190.164 E43.27118
G1 X89.331 Y190.491 E43.73014
G1 X84.886 Y190.600 E44.18910
G1 X80.440 Y190.491 E44.64806
G1 X76.862 Y190.227 E45.01832
G1 X76.538 Y190.291 E45.05242
G1 X76.244 Y190.488 E45.08898
G1 X76.047 Y190.783 E45.12555
G1 X75.978 Y191.130 E45.16210
G1 X76.047 Y191.477 E45.19865
G1 X76.244 Y191.772 E45.23522
G1 X76.538 Y191.969 E45.27178
G1 X76.846 Y192.030 E45.30419
G1 X82.476 Y192.030 E45.88519
G1 X82.476 Y192.830 E45.96776
G1 X76.916 Y192.830 E46.54161
G1 X76.239 Y192.694 E46.61289
G1 X75.689 Y192.326 E46.68108
G1 X75.322 Y191.778 E46.74923
G1 X75.194 Y191.130 E46.81737
G1 X75.401 Y190.089 E46.92691
G1 X71.592 Y189.619 E47.32298
G1 X67.211 Y188.859 E47.78193
G1 X62.872 Y187.885 E48.24089
G1 X61.302 Y187.450 E48.40903
G1 X60.986 Y187.134 E48.45514
G1 X60.986 Y186.261 E48.54527
G1 X35.195 Y187.613 E51.21071
G1 X35.452 Y192.506 E51.71644
G1 X37.310 Y192.409 E51.90846
G1 X37.501 Y192.436 E51.92841
G1 X37.633 Y192.514 E51.94420
G1 X37.724 Y192.637 E51.95999
G1 X37.762 Y192.785 E51.97578
G1 X37.740 Y192.937 E51.99158
G1 X37.662 Y193.068 E52.00737
G1 X37.539 Y193.160 E52.02316
G1 X37.352 Y193.207 E52.04309
G1 X34.695 Y193.347 E52.31770
G1 X34.397 Y187.655 E52.90598
G1 X33.498 Y187.702 E52.99887
G1 X33.796 Y193.394 E53.58716
G1 X32.997 Y193.436 E53.66973
G1 X32.699 Y187.743 E54.25804
G1 X31.800 Y187.791 E54.35093
G1 X32.098 Y193.483 E54.93920
G1 X29.441 Y193.622 E55.21380
G1 X29.250 Y193.594 E55.23374
G1 X29.119 Y193.516 E55.24953
G1 X29.027 Y193.393 E55.26532
G1 X28.990 Y193.245 E55.28111
G1 X29.012 Y193.094 E55.29690
G1 X29.090 Y192.962 E55.31270
G1 X29.212 Y192.871 E55.32849
G1 X29.400 Y192.823 E55.34842
G1 X31.258 Y192.726 E55.54046
G1 X31.001 Y187.832 E56.04619
G1 X30.156 Y187.877 E56.13355
G1 X27.706 Y188.221 E56.38895
G1 X27.594 Y187.429 E56.47151
G1 X30.094 Y187.078 E56.73207
G1 X60.904 Y185.464 E59.91631
G1 X62.219 Y185.169 E60.05542
G1 X66.373 Y184.019 E60.50019
G1 X70.465 Y182.668 E60.94496
G1 X74.485 Y181.117 E61.38973
G1 X78.425 Y179.370 E61.83451
G1 X82.274 Y177.433 E62.27928
G1 X86.024 Y175.309 E62.72405
G1 X89.665 Y173.003 E63.16882
G1 X93.188 Y170.522 E63.61360
G1 X96.586 Y167.870 E64.05837
G1 X99.849 Y165.056 E64.50315
G1 X102.970 Y162.084 E64.94791
G1 X105.941 Y158.963 E65.39268
G1 X108.756 Y155.700 E65.83746
G1 X111.407 Y152.302 E66.28223
G1 X113.889 Y148.779 E66.72701
G1 X116.194 Y145.138 E67.17178
G1 X118.319 Y141.389 E67.61655
G1 X120.256 Y137.539 E68.06133
G1 X122.003 Y133.600 E68.50610
G1 X123.553 Y129.579 E68.95087
G1 X124.905 Y125.487 E69.39564
G1 X126.055 Y121.334 E69.84041
G1 X126.999 Y117.129 E70.28519
G1 X127.736 Y112.883 E70.72996
G1 X128.263 Y108.606 E71.17473
G1 X128.580 Y104.308 E71.61950
G1 X128.686 Y100.000 E72.06428
G1 X128.580 Y95.692 E72.50905
G1 X128.263 Y91.394 E72.95382
G1 X127.736 Y87.117 E73.39859
G1 X126.999 Y82.871 E73.84337
G1 X126.055 Y78.666 E74.28814
G1 X124.905 Y74.513 E74.73291
G1 X123.553 Y70.421 E75.17769
G1 X122.003 Y66.400 E75.62245
G1 X120.256 Y62.461 E76.06723
G1 X118.319 Y58.611 E76.51201
G1 X116.194 Y54.862 E76.95678
G1 X113.889 Y51.221 E77.40155
G1 X111.407 Y47.698 E77.84632
G1 X108.756 Y44.300 E78.29110
G1 X105.941 Y41.037 E78.73587
G1 X102.970 Y37.916 E79.18064
G1 X99.849 Y34.944 E79.62541
G1 X96.586 Y32.130 E80.07018
G1 X93.188 Y29.478 E80.51496
G1 X89.665 Y26.997 E80.95973
G1 X86.024 Y24.691 E81.40450
G1 X82.274 Y22.567 E81.84927
G1 X78.425 Y20.630 E82.29405
G1 X74.485 Y18.883 E82.73882
G1 X70.465 Y17.332 E83.18360
G1 X66.373 Y15.981 E83.62837
G1 X62.219 Y14.831 E84.07314
G1 X60.904 Y14.536 E84.21224
G1 X30.094 Y12.922 E87.39648
G1 X27.594 Y12.571 E87.65704
G1 X27.706 Y11.779 E87.73961
G1 X30.156 Y12.123 E87.99501
G1 X31.001 Y12.168 E88.08236
G1 X31.258 Y7.274 E88.58809
G1 X29.400 Y7.177 E88.78013
G1 X29.212 Y7.129 E88.80006
G1 X29.090 Y7.038 E88.81585
G1 X29.012 Y6.906 E88.83165
G1 X28.990 Y6.755 E88.84745
G1 X29.027 Y6.607 E88.86323
G1 X29.119 Y6.484 E88.87902
G1 X29.250 Y6.406 E88.89481
G1 X29.441 Y6.378 E88.91475
G1 X32.098 Y6.517 E89.18935
G1 X31.803 Y12.149 E89.77142
M106 S89.25
G1 Z0.850 F4800.000
M104 S200 ; set temperature
G1 E89.07142 F3000.00000
G92 E0
G1 X61.718 Y13.899 F4800.000
G1 E0.90000 F1800.00000
G1 F1440
G1 X61.806 Y13.100 E0.98297
G1 X62.311 Y13.100 E1.03508
G1 X63.066 Y12.891 E1.11593
G1 X67.367 Y11.925 E1.57083
G1 X71.709 Y11.172 E2.02574
G1 X76.084 Y10.632 E2.48064
G1 X80.479 Y10.308 E2.93554
G1 X84.787 Y10.202 E3.38024
G1 X89.292 Y10.308 E3.84532
G1 X93.688 Y10.632 E4.30024
G1 X98.062 Y11.172 E4.75515
G1 X102.405 Y11.925 E5.21006
G1 X106.705 Y12.891 E5.66495
G1 X110.953 Y14.067 E6.11987
G1 X115.139 Y15.449 E6.57477
G1 X119.251 Y17.036 E7.02967
G1 X123.280 Y18.822 E7.48457
G1 X127.217 Y20.803 E7.93948
G1 X131.052 Y22.976 E8.39439
G1 X134.776 Y25.334 E8.84929
G1 X138.380 Y27.872 E9.30419
G1 X141.854 Y30.584 E9.75910
G1 X145.192 Y33.463 E10.21400
G1 X148.384 Y36.502 E10.66890
G1 X151.423 Y39.694 E11.12380
G1 X154.302 Y43.031 E11.57871
G1 X157.014 Y46.506 E12.03362
G1 X159.552 Y50.110 E12.48852
G1 X161.910 Y53.833 E12.94342
G1 X164.082 Y57.668 E13.39833
G1 X166.064 Y61.606 E13.85323
G1 X167.850 Y65.635 E14.30814
G1 X169.436 Y69.747 E14.76303
G1 X170.819 Y73.932 E15.21794
G1 X171.995 Y78.180 E15.67286
G1 X172.960 Y82.481 E16.12775
G1 X173.714 Y86.824 E16.58265
G1 X174.254 Y91.198 E17.03757
G1 X174.577 Y95.594 E17.49247
G1 X174.686 Y100.000 E17.94737
G1 X174.577 Y104.406 E18.40227
G1 X174.254 Y108.802 E18.85717
G1 X173.714 Y113.176 E19.31209
G1 X172.960 Y117.519 E19.76699
G1 X171.995 Y121.820 E20.22188
G1 X170.819 Y126.068 E20.67680
G1 X169.436 Y130.253 E21.13170
G1 X167.850 Y134.365 E21.58660
G1 X166.064 Y138.394 E22.04150
G1 X164.082 Y142.332 E22.49641
G1 X161.910 Y146.167 E22.95132
G1 X159.552 Y149.890 E23.40622
G1 X157.014 Y153.494 E23.86112
G1 X154.302 Y156.969 E24.31603
G1 X151.423 Y160.306 E24.77094
G1 X148.384 Y163.498 E25.22583
G1 X145.192 Y166.537 E25.68073
G1 X141.854 Y169.416 E26.13564
G1 X138.380 Y172.128 E26.59055
G1 X134.776 Y174.666 E27.04545
G1 X131.052 Y177.024 E27.50035
G1 X127.217 Y179.197 E27.95526
G1 X123.280 Y181.178 E28.41016
G1 X119.251 Y182.964 E28.86507
G1 X115.139 Y184.551 E29.31997
G1 X110.953 Y185.933 E29.77487
G1 X106.705 Y187.109 E30.22978
G1 X102.405 Y188.075 E30.68468
G1 X98.062 Y188.828 E31.13959
G1 X93.688 Y189.368 E31.59450
G1 X89.292 Y189.692 E32.04939
G1 X84.886 Y189.800 E32.50430
G1 X80.479 Y189.692 E32.95921
G1 X76.182 Y189.375 E33.40390
G1 X71.710 Y188.828 E33.86898
G1 X67.367 Y188.075 E34.32391
G1 X63.066 Y187.109 E34.77881
G1 X62.311 Y186.900 E34.85966
G1 X61.806 Y186.900 E34.91177
G1 X61.718 Y186.101 E34.99474
G1 X62.414 Y185.945 E35.06837
G1 X66.605 Y184.785 E35.51720
G1 X70.734 Y183.421 E35.96602
G1 X74.791 Y181.856 E36.41484
G1 X78.767 Y180.093 E36.86367
G1 X82.651 Y178.138 E37.31249
G1 X86.435 Y175.995 E37.76132
G1 X90.109 Y173.668 E38.21014
G1 X93.665 Y171.164 E38.65896
G1 X97.093 Y168.489 E39.10779
G1 X100.386 Y165.648 E39.55661
G1 X103.535 Y162.650 E40.00543
G1 X106.534 Y159.500 E40.45426
G1 X109.374 Y156.207 E40.90308
G1 X112.050 Y152.779 E41.35191
G1 X114.554 Y149.223 E41.80073
G1 X116.880 Y145.549 E42.24956
